X: 26046
T: McBride's
R: reel
M: 4/4
K: Bminor
A|:Bgfg edBe|efed BAdc|Bgfg edBd|dcdc BAdc|
Bgfg edBe|efed efge|egfd BGdc|BAFA BAdc:|
Beef edBA|d3ef3a|gefg edBG|dcBA BG(e2|
e)gfd edBA|d3e f3a|gBeg fdBG|dcBA BG(e2|
e)gfd edBA|d3e f3a|gefd edBG|dcBA BG(e2|
e)gfd edBA|d3e f3a|gbeg fdBG|dcBA Beez||
|:b2gb ab (3gfe|fedB defa|b2gb ab (3gfe|bc' (3d'c'b e'd'c'a|
b2gb ab (3gfe|fedB defa|g2eg fdBc|1 dcBA Bee a:|2 dcBA FAdc||

